data/styles/clear/style-clear/symbols/parking-m.svg

<svg height="20" viewBox="0 0 20 20" width="20"><g fill="none" fill-rule="evenodd"><rect fill="#fff" height="20" opacity=".6" rx="2.5" width="20"/><rect fill="#2e89b0" height="18" rx="2" width="18" x="1" y="1"/><path d="m7 6v9h2v-3.20625h.65978507c1.06850673 0 1.90075043-.2466 2.47822393-.75933.5813871-.51273.8619824-1.25388.861991-2.22192-.0000086-.93105-.2620797-1.64178-.8081165-2.10933-.5421147-.47169-1.3524724-.70308-2.39741235-.70317zm2 1.575h.7136595c.4988945 0 .8457166.09621 1.0774887.30942.2356942.2133.3501752.5373.3501838.98433-.0000086.44298-.1251525.77868-.4040582 1.0125-.2789231.22968-.704307.36567-1.26604925.36567h-.47122455z" fill="#fff"/></g></svg>

<svg width="20" height="20" viewBox="0 0 20 20">
  <g fill="none" fill-rule="evenodd">
    <rect width="20" height="20" fill="#FFF" opacity=".6" rx="2.5"/>
    <rect width="18" height="18" x="1" y="1" fill="#2E89B0" rx="2"/>
    <path fill="#FFF" d="M7,6 L7,15 L9,15 L9,11.79375 L9.65978507,11.79375 C10.7282918,11.79375 11.5605355,11.54715 12.138009,11.03442 C12.7193961,10.52169 12.9999914,9.78054 13,8.8125 C12.9999914,7.88145 12.7379203,7.17072 12.1918835,6.70317 C11.6497688,6.23148 10.8394111,6.00009 9.79447115,6 L7,6 Z M9,7.575 L9.7136595,7.575 C10.212554,7.575 10.5593761,7.67121 10.7911482,7.88442 C11.0268424,8.09772 11.1413234,8.42172 11.141332,8.86875 C11.1413234,9.31173 11.0161795,9.64743 10.7372738,9.88125 C10.4583507,10.11093 10.0329668,10.24692 9.47122455,10.24692 L9,10.24692 L9,7.575 Z"/>
  </g>
</svg>
